X: 1
T: Raphoe, The
S: Martin McGinley (Dervish - &quot;Boys Of Sligo&quot;)
M: 4/4
L: 1/8
R: reel
K: Dmix
^cdAG E~=F2D|E2CE DE=FG|Ad~d2 de=fd|e=faf ec~c2|
e~f2f g2ed|(3B^cd ed =cAGE|DE (3FFG Adde|cAGE EDCA,|
[G3D3]D E2DC|DccB ~c3B|Ad~d2 de=fd|e=faf ec~c2|
e~f2f g2ed|(3B^cd ed =cAGE|DE (3FFG Adde|cAGE EDDG||
|:ECEG FDFA|~d3e fdAd|f~g2a ge^ce|a^ged ^cAGE|
Dd~d2 de=fd|AcBd cAGc|AGEA BcAG|1 EDCE D3G:|2 EDCE DEFA||
